X: 1053
T: Hicazkâr Peşrev
C: Tanburî Büyük Osman Bey
O: Turkey
F: http://compmusic.upf.edu/node/140
N: hicazkar--pesrev--devrikebir----tanburi_buyuk_osman_bey
N: makam= hicazkar
N: form= pesrev
N: usul= devrikebir = 28/4
M: 28/4
L: 1/16
K: C _1/4B _7/8e _7/8A ^f
Q: 1/4=72
%%MIDI tuningsystem comma53
f4 g4 g4 _b2=a2  | g3_b =a2g2 gfed e2fg  | \
w:  1. HANE  |   | 
fed2 =a3g f2g2 f2e2  | 
w:   | 
defg feed dccB c2d2  | c4 d2e2 f4 g2=a2  | \
w:   |   | 
z2g=a g2f2 _1/4e2f2 g2a2  | 
w:   | 
g2=a_b c'2ba aggf g4  | b4 c'3_b =a4 b3a  | \
w:   |   | 
g3_b =a2g2 gfed e2fg  | 
w:   | 
fed2 =a3g f2g2 f2e2  | defg feed dccB c2d2  | 
w:   |   | 
c4 d2e2 f3=a g2f2  | e3d c2d2 efed dccB  | \
w:   |   | 
cBcd cdcB B=AAB c4  | 
w:   | 
c4 B2c2 B4 c4  | defg feed dccB c4  | \
w:   |   | 
G4 c2B2 c4 g4  | 
w:   | 
=f3a aggf feed dccB  | c4 d2e2 f3=a g2f2  | 
w:   |   | 
e3d c2d2 efed dccB  | c2c'4_b=a aggf g4  | 
w:   |   | 
fg=a_b aggf g4 a2_1/4b2  | c'2b=a aggf feed dccB  | 
w:  TESLİM  |   | 
c4 g=ff_1/4e f3a g3f  | =f3_e e3d d3c Bcd_7/8e  | \
w:   |   | 
dcBA BAGF GABc dedc  | 
w:   | 
d2B4G2 AGAB A2G2  | G2A2 G2F2 E2F2 G4  | |


